X:NEW 15-25
C:David Linton <djl@colourcountry.net>
K:Ador
M:2+2+3+3/4
P:A
"A5"A2A>B | c2c>d | "C"e2d>c"G"B2 | "Em"B2A>G"A"A2 :|
P:B
"D"a2a>g | f2e>d | "C"g2f>e"G"d2 | "Em"B2A>G"A"A2 :|

